X:175
T:It Grieves Me Much to Pitty Thee THO3.175
O:England;London
M:C
L:1/8
Z:vmp. Peter Dunk 2011.from a transcription by Fynn Titford-Mock 2006-9
B:Thompson's Compleat Collection of 200 Favourite Country Dances Vol. III.1765-72
Q:1/4=140
K:D
d>ed>A F>DDe|eEE>F G>A B2|d>ed>A FDDd|fdd>A B>c d2:|
|:e>fed c<Aec|dBfd c^A F2|B>cBF d>edB|f>gfd B>c d2|
d>ed>A F>DDd|eEE>F G>A B2|d>ed>A FDDd|fdd>A B>c d2:|

